en/_assets/code-assistant/vsc-icon-small.svg

<svg width="16" height="16" viewBox="0 0 16 16" fill="none" xmlns="http://www.w3.org/2000/svg">
<g clip-path="url(#clip0_1068_334)">
<path fill-rule="evenodd" clip-rule="evenodd" d="M5.19994 1.00001C4.5372 1.00001 3.99994 1.53727 3.99994 2.20001V12.499C3.99994 12.9445 4.53851 13.1676 4.85349 12.8526L6.70605 11H14.7999C15.4627 11 15.9999 10.4628 15.9999 9.80001V2.20001C15.9999 1.53727 15.4627 1.00001 14.7999 1.00001H5.19994ZM10.4726 2.50002L7.99994 9.50002H9.52726L11.9999 2.50002H10.4726Z" fill="black"/>
<path d="M1.19994 3.00002H2.99994V4.00002H1.19994C1.08948 4.00002 0.99994 4.08956 0.99994 4.20002V13.8C0.99994 13.9105 1.08948 14 1.19994 14H12.7999C12.9104 14 12.9999 13.9105 12.9999 13.8V12H13.9999V13.8C13.9999 14.4628 13.4627 15 12.7999 15H1.19994C0.537198 15 -6.10352e-05 14.4628 -6.10352e-05 13.8V4.20002C-6.10352e-05 3.53727 0.537198 3.00002 1.19994 3.00002Z" fill="black"/>
</g>
<defs>
<clipPath id="clip0_1068_334">
<rect width="16" height="16" fill="white"/>
</clipPath>
</defs>
</svg>

<svg xmlns="http://www.w3.org/2000/svg" width="16" height="16" fill="none" viewBox="0 0 16 16">
    <g fill="#000" clip-path="url(#clip0_1068_334)">
        <path fill-rule="evenodd" d="M5.2 1A1.2 1.2 0 0 0 4 2.2v10.299a.5.5 0 0 0 .853.354L6.706 11H14.8A1.2 1.2 0 0 0 16 9.8V2.2A1.2 1.2 0 0 0 14.8 1H5.2Zm5.273 1.5L8 9.5h1.527L12 2.5h-1.527Z" clip-rule="evenodd"/>
        <path d="M1.2 3H3v1H1.2a.2.2 0 0 0-.2.2v9.6c0 .11.09.2.2.2h11.6a.2.2 0 0 0 .2-.2V12h1v1.8a1.2 1.2 0 0 1-1.2 1.2H1.2A1.2 1.2 0 0 1 0 13.8V4.2A1.2 1.2 0 0 1 1.2 3Z"/>
    </g>
    <defs>
        <clipPath id="clip0_1068_334">
            <path fill="#fff" d="M0 0h16v16H0z"/>
        </clipPath>
    </defs>
</svg>
